release/img/main-flat.svg

<svg width="31" height="31" viewBox="0 0 31 31" fill="none" xmlns="http://www.w3.org/2000/svg">
<path d="M3.20361 9.72917C3.37113 9.42361 3.62241 9.28472 3.92952 9.17361C7.81035 7.8125 11.7191 6.45139 15.5999 5.0625C15.8512 4.97917 16.0746 4.97917 16.3258 5.0625C20.2625 6.45139 24.1992 7.8125 28.1359 9.20139C28.5547 9.34028 28.7501 9.59028 28.7501 9.95139C28.7501 10.3125 28.5547 10.5625 28.1359 10.7014C24.1992 12.0903 20.2625 13.4792 16.3258 14.8681C16.1304 14.9514 15.8512 14.9236 15.6279 14.8681C11.6912 13.4792 7.75451 12.0903 3.81784 10.7014C3.53865 10.5903 3.34321 10.4236 3.20361 10.1736V9.72917Z" fill="black"/>
<path d="M8.45264 13.9238C8.98311 14.1183 9.45774 14.2849 9.9603 14.4516C11.6634 15.0627 13.3665 15.6461 15.0696 16.2572C15.6838 16.4794 16.2701 16.4794 16.8844 16.2572C18.9783 15.5072 21.1002 14.7572 23.1942 14.0072C23.278 13.9794 23.3896 13.9516 23.5013 13.9238C23.5013 14.5349 23.5013 15.0905 23.5013 15.6738C23.5013 16.1183 23.5013 16.5627 23.5013 17.0072C23.5013 17.5349 23.3059 17.9238 22.915 18.2572C22.2729 18.7849 21.519 19.0627 20.7652 19.2849C18.9225 19.8127 17.0519 20.0072 15.1534 19.9238C13.5619 19.8405 12.0264 19.6183 10.5466 19.0627C10.0441 18.8683 9.56942 18.5905 9.12271 18.3127C8.67599 18.0072 8.45264 17.5627 8.48056 17.0072C8.48056 16.0072 8.48056 14.9794 8.48056 13.9238H8.45264Z" fill="black"/>
<path d="M26.9632 25.4795C26.9632 25.8962 26.6002 26.2295 26.2094 26.2017C25.8185 26.2017 25.4834 25.8684 25.4834 25.4517C25.4834 24.3128 25.4834 23.1462 25.4834 22.0073C25.4834 21.8962 25.4276 21.7573 25.3438 21.7017C24.5342 21.0906 24.5063 19.8962 25.3438 19.285C25.4555 19.2017 25.5114 19.0906 25.5114 18.9517C25.5114 17.1184 25.5114 15.2573 25.5114 13.4239C25.5114 13.2573 25.5393 13.1739 25.7068 13.1184C26.0977 13.0073 26.4606 12.8684 26.8515 12.7295C26.8515 12.8684 26.9073 13.0073 26.9073 13.1462C26.9073 15.0628 26.9073 16.9517 26.9073 18.8684C26.9073 18.9517 26.9632 19.0628 26.9911 19.1462C27.4378 19.4795 27.7449 19.8684 27.7449 20.4517C27.7449 20.9795 27.5216 21.3684 27.1307 21.6739C27.0749 21.7017 27.0469 21.7573 26.9911 21.8128C26.9632 21.8684 26.9073 21.9517 26.9073 22.0073C26.9073 23.0906 26.9073 24.1462 26.9073 25.2295C26.9073 25.285 26.9632 25.3684 26.9911 25.4239L26.9632 25.4795Z" fill="black"/>
<path d="M26.9633 19.1734C26.9633 19.1734 26.8796 18.9789 26.8796 18.8956C26.8796 16.9789 26.8796 15.0901 26.8796 13.1734C26.8796 13.0345 26.8517 12.8956 26.8237 12.7567C26.8517 12.7567 26.9075 12.7289 26.9633 12.7012V19.1734Z" fill="#020202"/>
<path d="M26.9632 25.4793C26.9632 25.4793 26.8794 25.3404 26.8794 25.2848C26.8794 24.2015 26.8794 23.1459 26.8794 22.0626C26.8794 22.0071 26.9352 21.9237 26.9632 21.8682C26.9632 23.0626 26.9632 24.2848 26.9632 25.4793Z" fill="#020202"/>
</svg>

<svg xmlns="http://www.w3.org/2000/svg" width="31" height="31" fill="none" viewBox="0 0 31 31">
  <path fill="#000" d="M3.204 9.73c.167-.306.418-.445.726-.556C7.81 7.813 11.72 6.45 15.6 5.063c.251-.084.475-.084.726 0 3.936 1.388 7.873 2.75 11.81 4.138.419.14.614.39.614.75 0 .361-.195.611-.614.75l-11.81 4.167c-.196.083-.475.056-.698 0l-11.81-4.167a1.15 1.15 0 0 1-.614-.527v-.445Z"/>
  <path fill="#000" d="M8.453 13.924c.53.194 1.005.36 1.507.528 1.703.61 3.406 1.194 5.11 1.805.614.222 1.2.222 1.814 0 2.094-.75 4.216-1.5 6.31-2.25a4.6 4.6 0 0 1 .307-.083v3.083c0 .528-.195.917-.586 1.25-.642.528-1.396.806-2.15 1.028-1.843.528-3.713.722-5.612.639-1.591-.084-3.127-.306-4.606-.861-.503-.195-.978-.473-1.424-.75-.447-.306-.67-.75-.642-1.306v-3.083h-.028Zm18.51 11.556c0 .416-.363.75-.754.722a.743.743 0 0 1-.726-.75v-3.445c0-.11-.055-.25-.14-.305-.809-.611-.837-1.806 0-2.417a.395.395 0 0 0 .168-.333v-5.528c0-.167.028-.25.196-.306.39-.11.754-.25 1.145-.389 0 .14.055.278.055.417v5.722c0 .084.056.195.084.278.447.334.754.722.754 1.306 0 .527-.223.916-.614 1.222-.056.028-.084.083-.14.139-.028.055-.084.139-.084.194v3.223c0 .055.056.138.084.194l-.028.056Z"/>
  <path fill="#020202" d="M26.963 19.173s-.083-.194-.083-.277v-5.723c0-.139-.028-.277-.056-.416.028 0 .083-.028.14-.056v6.472Zm0 6.307s-.084-.14-.084-.195v-3.222c0-.056.056-.14.084-.195v3.611Z"/>
</svg>
